X:0
T:I Bit the Bee and the Bee Bit Me
M:C|
C:© Paul Gitlitz 2007
R:Reel
K:Bb
"Bb"FB2c dcBc|df2g f4|"Gm"g2ga gfd2|"F"c2cd cBG2|!
"Bb"FB2c dcBc|df2g f4|"Gm"gfga gfd2|"F"cBA2 "Bb"B4:|!
|:"Gm"g2ga gfd2|"Bb"fdfg f4|"Gm"g2ga bag2|"Bb"fed2 "F"c4|!
"Bb"FB2c dcBc|"Bb"df2g f4|"Gm"gfga gfd2|"F"cBA2 "Bb"B4:|]
